client/public/img/faq.svg

<svg height="512pt" viewBox="0 0 512 512" width="512pt" xmlns="http://www.w3.org/2000/svg"><path d="m512 346.5c0-63.535156-36.449219-120.238281-91.039062-147.820312-1.695313 121.820312-100.460938 220.585937-222.28125 222.28125 27.582031 54.589843 84.285156 91.039062 147.820312 91.039062 29.789062 0 58.757812-7.933594 84.210938-23.007812l80.566406 22.285156-22.285156-80.566406c15.074218-25.453126 23.007812-54.421876 23.007812-84.210938zm0 0"/><path d="m391 195.5c0-107.800781-87.699219-195.5-195.5-195.5s-195.5 87.699219-195.5 195.5c0 35.132812 9.351562 69.339844 27.109375 99.371094l-26.390625 95.40625 95.410156-26.386719c30.03125 17.757813 64.238282 27.109375 99.371094 27.109375 107.800781 0 195.5-87.699219 195.5-195.5zm-225.5-45.5h-30c0-33.085938 26.914062-60 60-60s60 26.914062 60 60c0 16.792969-7.109375 32.933594-19.511719 44.277344l-25.488281 23.328125v23.394531h-30v-36.605469l35.234375-32.25c6.296875-5.761719 9.765625-13.625 9.765625-22.144531 0-16.542969-13.457031-30-30-30s-30 13.457031-30 30zm15 121h30v30h-30zm0 0"/></svg>

<svg id="fcb4eab0-046f-4f79-bb5f-bff1ee37d85b" data-name="Layer 1" xmlns="http://www.w3.org/2000/svg" viewBox="0 0 512 512"><title>faq</title><path d="M512,346.5a166,166,0,0,0-91-147.82C419.27,320.5,320.5,419.27,198.68,421a165.55,165.55,0,0,0,232,68l80.57,22.29L489,430.71A164.84,164.84,0,0,0,512,346.5Z" fill="#e5bdff"/><path d="M391,195.5C391,87.7,303.3,0,195.5,0S0,87.7,0,195.5a194.87,194.87,0,0,0,27.11,99.37L.72,390.28l95.41-26.39A194.87,194.87,0,0,0,195.5,391C303.3,391,391,303.3,391,195.5ZM165.5,150h-30A60,60,0,1,1,236,194.28L210.5,217.61V241h-30V204.39l35.23-32.25A29.67,29.67,0,0,0,225.5,150a30,30,0,0,0-60,0Zm15,121h30v30h-30Z" fill="#e5bdff"/></svg>
